images/instagram.svg

<svg width="25" height="25" viewBox="0 0 25 25" fill="none" xmlns="http://www.w3.org/2000/svg">
<path d="M12.6805 0.827148C15.8811 0.827148 16.2805 0.838928 17.5363 0.897829C18.7908 0.95673 19.6449 1.15346 20.3965 1.4456C21.1739 1.74482 21.8289 2.15005 22.4839 2.80385C23.0829 3.39273 23.5464 4.10507 23.8421 4.89128C24.1331 5.64168 24.331 6.49691 24.3899 7.75149C24.4453 9.00725 24.4606 9.4066 24.4606 12.6073C24.4606 15.8079 24.4488 16.2072 24.3899 17.463C24.331 18.7176 24.1331 19.5716 23.8421 20.3232C23.5473 21.1099 23.0836 21.8224 22.4839 22.4107C21.8948 23.0095 21.1826 23.4729 20.3965 23.7689C19.6461 24.0599 18.7908 24.2578 17.5363 24.3167C16.2805 24.372 15.8811 24.3874 12.6805 24.3874C9.47984 24.3874 9.08049 24.3756 7.82473 24.3167C6.57015 24.2578 5.7161 24.0599 4.96453 23.7689C4.178 23.4738 3.46554 23.0102 2.87709 22.4107C2.27796 21.8219 1.81445 21.1095 1.51885 20.3232C1.2267 19.5728 1.02997 18.7176 0.971071 17.463C0.915705 16.2072 0.900391 15.8079 0.900391 12.6073C0.900391 9.4066 0.912171 9.00725 0.971071 7.75149C1.02997 6.49573 1.2267 5.64285 1.51885 4.89128C1.81363 4.10458 2.27725 3.39205 2.87709 2.80385C3.46571 2.20451 4.17812 1.74097 4.96453 1.4456C5.7161 1.15346 6.56898 0.95673 7.82473 0.897829C9.08049 0.842463 9.47984 0.827148 12.6805 0.827148ZM12.6805 6.7172C11.1184 6.7172 9.6202 7.33776 8.5156 8.44236C7.411 9.54695 6.79044 11.0451 6.79044 12.6073C6.79044 14.1694 7.411 15.6675 8.5156 16.7721C9.6202 17.8767 11.1184 18.4973 12.6805 18.4973C14.2426 18.4973 15.7408 17.8767 16.8454 16.7721C17.95 15.6675 18.5705 14.1694 18.5705 12.6073C18.5705 11.0451 17.95 9.54695 16.8454 8.44236C15.7408 7.33776 14.2426 6.7172 12.6805 6.7172ZM20.3376 6.4227C20.3376 6.03216 20.1824 5.65762 19.9063 5.38147C19.6301 5.10532 19.2556 4.95018 18.865 4.95018C18.4745 4.95018 18.1 5.10532 17.8238 5.38147C17.5477 5.65762 17.3925 6.03216 17.3925 6.4227C17.3925 6.81323 17.5477 7.18777 17.8238 7.46392C18.1 7.74007 18.4745 7.89521 18.865 7.89521C19.2556 7.89521 19.6301 7.74007 19.9063 7.46392C20.1824 7.18777 20.3376 6.81323 20.3376 6.4227ZM12.6805 9.07322C13.6178 9.07322 14.5167 9.44555 15.1794 10.1083C15.8422 10.7711 16.2145 11.67 16.2145 12.6073C16.2145 13.5445 15.8422 14.4434 15.1794 15.1062C14.5167 15.7689 13.6178 16.1413 12.6805 16.1413C11.7432 16.1413 10.8443 15.7689 10.1816 15.1062C9.5188 14.4434 9.14646 13.5445 9.14646 12.6073C9.14646 11.67 9.5188 10.7711 10.1816 10.1083C10.8443 9.44555 11.7432 9.07322 12.6805 9.07322Z" fill="white"/>
</svg>

<svg xmlns="http://www.w3.org/2000/svg" width="25" height="25" fill="none"><path fill="#fff" d="M12.68.827c3.201 0 3.6.012 4.856.07 1.255.06 2.109.256 2.86.549.778.299 1.433.704 2.088 1.358a5.8 5.8 0 0 1 1.358 2.087c.291.75.489 1.606.548 2.86.055 1.256.07 1.656.07 4.856s-.011 3.6-.07 4.856-.257 2.109-.548 2.86a5.75 5.75 0 0 1-1.358 2.088 5.8 5.8 0 0 1-2.088 1.358c-.75.29-1.605.489-2.86.548-1.256.055-1.655.07-4.856.07s-3.6-.011-4.855-.07-2.109-.257-2.86-.548a5.8 5.8 0 0 1-2.088-1.358 5.8 5.8 0 0 1-1.358-2.088c-.292-.75-.489-1.605-.548-2.86-.055-1.256-.07-1.655-.07-4.856s.011-3.6.07-4.856.256-2.108.548-2.86c.295-.786.758-1.499 1.358-2.087a5.8 5.8 0 0 1 2.088-1.358c.751-.293 1.604-.49 2.86-.548C9.08.842 9.48.828 12.68.828m0 5.89a5.89 5.89 0 1 0 0 11.78 5.89 5.89 0 0 0 0-11.78m7.658-.294a1.473 1.473 0 1 0-2.946 0 1.473 1.473 0 0 0 2.946 0m-7.658 2.65a3.534 3.534 0 1 1 0 7.068 3.534 3.534 0 0 1 0-7.068"/></svg>
